X: 1
T: Down the Broom
R: reel
M: C|
Z: John Chambers <jc:trillian.mit.edu>
L: 1/8
K: Em
|: "Em"GBEB GBEB | GBEB "C"c2BA \
|  "Em"GBEB GBEB | "D"FDFG A2BA |
|  "Em"GBEB GBEB | GBEB "C"c2BA \
|  "G"GABc dedB | "D7"ADFA c2BA :|
|: "G"G2BG cGBG | G2Bd "(C)"eg"(D)"dB \
|  "G"G2BG cGBG | "D7"AFDF AcBA |
|  "G"G2BG cGBG | G2Bd "C"e2ef \
| "G"gagf edBd | "C"egdB "D"AGEF :|
